X:2921
T:Cherish the Ladies
R:Jig
S:P. Glackin
M:6/8
L:1/8
K:D
|dFF AFE|DFA AFA|BEE CEE|FEF ABc|
dFF AFE|DFA AFA|Bcd efg|fdc d3:||
dfd cec|dcd AFA|BEE CEE|FEF ABc|
dfd cec|dcd AFA|Bcd efg|fdc d3:|
A|~d3 fed|afd fed|~B3 ~g3|ece gfe|
dcd fed|afd gbg|fdB AGF|GEF GFE||
~d3 fed|afd fed|~B3 ~g3|ece gfe|
~a3 bgb|afa g2e|fdB AGF|GEF GFE|||
ADD AGF|ADD AdB|ADD AGF|GEF GFE|
ADD AGF|ADD AB=c|BGB AFA|GEF GFE:||
DFA dAF|DFA BGE|DFA dAF|GAG GFE|
DFA ~d3|~c3 AB=c|BGB AFA|GEF GFE:|


